assets/svgs/spring-color/SpringColor14.svg

<svg xmlns="http://www.w3.org/2000/svg" data-name="Layer 1" viewBox="0 0 128 128"><path fill="#45b549" fill-rule="evenodd" d="M64 14.918a18.86 18.86 0 0118.805 17.438 18.86 18.86 0 113.276 37.434h-15.2v-8.427L84.615 44.74a3.271 3.271 0 00-.437-4.59l-.269-.222a3.27 3.27 0 00-4.59.437l-8.437 10.213v-4.749a5.838 5.838 0 00-5.822-5.822h-.622a5.838 5.838 0 00-5.822 5.822v8.626l-11.434-13.84a3.27 3.27 0 00-4.59-.437l-.269.222a3.27 3.27 0 00-.437 4.59l16.73 20.25v4.55h-16.7a18.859 18.859 0 113.275-37.434A18.861 18.861 0 0164 14.918z"/><path fill="#d86227" fill-rule="evenodd" d="M64.438 40.008h.622a5.838 5.838 0 015.822 5.822v4.749l8.438-10.214a3.27 3.27 0 014.59-.437l.269.222a3.271 3.271 0 01.437 4.59L70.882 61.363v48.07h24.364a1.825 1.825 0 110 3.649H32.753a1.825 1.825 0 110-3.649h25.863V65.24l-16.73-20.25a3.27 3.27 0 01.437-4.59l.269-.222a3.27 3.27 0 014.59.437l11.434 13.84v-8.626a5.838 5.838 0 015.822-5.821z"/></svg>

<svg id="Layer_1" data-name="Layer 1" xmlns="http://www.w3.org/2000/svg" viewBox="0 0 128 128"><title>Artboard 14</title><path d="M64,14.918A18.86,18.86,0,0,1,82.805,32.356,18.86,18.86,0,1,1,86.081,69.79h-15.2V61.363L84.615,44.74a3.271,3.271,0,0,0-.437-4.59l-.269-.222a3.27,3.27,0,0,0-4.59.437L70.882,50.578V45.829a5.838,5.838,0,0,0-5.822-5.822h-.622a5.838,5.838,0,0,0-5.822,5.822v8.626L47.182,40.615a3.27,3.27,0,0,0-4.59-.437l-.269.222a3.27,3.27,0,0,0-.437,4.59l16.73,20.25v4.55h-16.7a18.859,18.859,0,1,1,3.275-37.434A18.861,18.861,0,0,1,64,14.918Z" style="fill:#45b549;fill-rule:evenodd"/><path d="M64.438,40.008h.622a5.838,5.838,0,0,1,5.822,5.822v4.749L79.32,40.365a3.27,3.27,0,0,1,4.59-.437l.269.222a3.271,3.271,0,0,1,.437,4.59L70.882,61.363v48.07H95.246a1.825,1.825,0,1,1,0,3.649H32.753a1.825,1.825,0,1,1,0-3.649H58.616V65.24L41.886,44.99a3.27,3.27,0,0,1,.437-4.59l.269-.222a3.27,3.27,0,0,1,4.59.437L58.616,54.455V45.829A5.838,5.838,0,0,1,64.438,40.008Z" style="fill:#d86227;fill-rule:evenodd"/></svg>
